X: 6120
T: Captain John's
R: hornpipe
M: 4/4
K: Dmajor
fg|:afge fded|cdec A3 d|cdef gfed|cdBc A2 fg|
afge dfed|cdec A2 z d|cdef gece|1 dfec d2 fg:|2 dfec dgfg||
eA (3AAA g2 fg|eA A2 A2 z g|gfed dcBA|GB B2 B2 AG|
Fd (3ddd ce (3eee|df (3fff eg (3ggg|fgaf bgec|1 d2 dc dgfg:|2 d2 dc d4||

